source/images/icons/icon-editorial/dossier-nouveau.svg

<?xml version="1.0" encoding="UTF-8"?>
<svg width="80px" height="80px" viewBox="0 0 80 80" version="1.1" xmlns="http://www.w3.org/2000/svg" xmlns:xlink="http://www.w3.org/1999/xlink">
    <!-- Generator: Sketch 55.2 (78181) - https://sketchapp.com -->
    <title>Illustrative Icons/Dossier-Nouveau</title>
    <desc>Created with Sketch.</desc>
    <g id="Illustrative-Icons/Dossier-Nouveau" stroke="none" stroke-width="1" fill="none" fill-rule="evenodd">
        <path d="M47,60.3333334 L12.1033333,60.3333334 C11.1265501,60.331499 10.3351677,59.5401166 10.3333333,58.5633334 L10.3333333,22 C10.3333333,21.0795254 11.0795254,20.3333333 12,20.3333333 L33.6666667,20.3333333 C34.5871413,20.3333333 35.3333334,19.5871413 35.3333334,18.6666667 C35.3333334,17.7461921 34.5871413,17 33.6666667,17 L12,17 C9.23857625,17 7,19.2385763 7,22 L7,58.5633334 C7.00367272,61.3803039 9.28636285,63.662994 12.1033333,63.6666667 L47,63.6666667 C47.9204746,63.6666667 48.6666667,62.9204746 48.6666667,62 C48.6666667,61.0795255 47.9204746,60.3333334 47,60.3333334 Z M68.6666667,23.6666667 L22,23.6666667 C19.2385763,23.6666667 17,25.9052429 17,28.6666667 L17,55.3333334 C17,56.253808 17.7461921,57.0000001 18.6666667,57.0000001 C19.5871413,57.0000001 20.3333333,56.253808 20.3333333,55.3333334 L20.3333333,28.6666667 C20.3333333,27.7461921 21.0795254,27 22,27 L68.6666667,27 C69.5871413,27 70.3333334,27.7461921 70.3333334,28.6666667 L70.3333334,37 C70.3333334,37.9204746 71.0795255,38.6666667 72,38.6666667 C72.9204747,38.6666667 73.6666667,37.9204746 73.6666667,37 L73.6666667,28.6666667 C73.6666667,25.9052429 71.4280905,23.6666667 68.6666667,23.6666667 Z M60.3333334,37 C52.9695367,37 47,42.9695367 47,50.3333334 C47,57.69713 52.9695367,63.6666667 60.3333334,63.6666667 C67.6971301,63.6666667 73.6666667,57.69713 73.6666667,50.3333334 C73.6584003,42.9729635 67.6937033,37.0082665 60.3333334,37 Z M60.3333334,60.3333334 C54.8104859,60.3333334 50.3333334,55.8561809 50.3333334,50.3333334 C50.3333334,44.8104859 54.8104859,40.3333334 60.3333334,40.3333334 C65.8561809,40.3333334 70.3333334,44.8104859 70.3333334,50.3333334 C70.3269044,55.8535157 65.8535157,60.3269044 60.3333334,60.3333334 L60.3333334,60.3333334 Z M65.3333334,48.6666667 L62.0000001,48.6666667 L62.0000001,45.3333334 C62.0000001,44.4128588 61.253808,43.6666667 60.3333334,43.6666667 C59.4128588,43.6666667 58.6666667,44.4128588 58.6666667,45.3333334 L58.6666667,48.6666667 L55.3333334,48.6666667 C54.4128588,48.6666667 53.6666667,49.4128588 53.6666667,50.3333334 C53.6666667,51.253808 54.4128588,52 55.3333334,52 L58.6666667,52 L58.6666667,55.3333334 C58.6666667,56.253808 59.4128588,57.0000001 60.3333334,57.0000001 C61.253808,57.0000001 62.0000001,56.253808 62.0000001,55.3333334 L62.0000001,52 L65.3333334,52 C66.253808,52 67.0000001,51.253808 67.0000001,50.3333334 C67.0000001,49.4128588 66.253808,48.6666667 65.3333334,48.6666667 Z M38.6666667,20.3333333 C39.5871413,20.3333333 40.3333334,19.5871413 40.3333334,18.6666667 C40.3333334,17.7461921 39.5871413,17 38.6666667,17 C37.7461921,17 37,17.7461921 37,18.6666667 C37,19.5871413 37.7461921,20.3333333 38.6666667,20.3333333 Z" id="Shape-color" fill="#ADB5BD"></path>
    </g>
</svg>

<svg width="80" height="80">
    <title>
        Illustrative Icons/Dossier-Nouveau
    </title>
    <path d="M47 60.333H12.103a1.773 1.773 0 0 1-1.77-1.77V22c0-.92.747-1.667 1.667-1.667h21.667a1.667 1.667 0 1 0 0-3.333H12a5 5 0 0 0-5 5v36.563a5.11 5.11 0 0 0 5.103 5.104H47a1.667 1.667 0 0 0 0-3.334zm21.667-36.666H22a5 5 0 0 0-5 5v26.666a1.667 1.667 0 0 0 3.333 0V28.667c0-.92.747-1.667 1.667-1.667h46.667c.92 0 1.666.746 1.666 1.667V37a1.667 1.667 0 1 0 3.334 0v-8.333a5 5 0 0 0-5-5zM60.333 37C52.97 37 47 42.97 47 50.333c0 7.364 5.97 13.334 13.333 13.334 7.364 0 13.334-5.97 13.334-13.334-.009-7.36-5.973-13.325-13.334-13.333zm0 23.333c-5.523 0-10-4.477-10-10s4.477-10 10-10 10 4.477 10 10c-.006 5.52-4.48 9.994-10 10zm5-11.666H62v-3.334a1.667 1.667 0 0 0-3.333 0v3.334h-3.334a1.667 1.667 0 0 0 0 3.333h3.334v3.333a1.667 1.667 0 0 0 3.333 0V52h3.333a1.667 1.667 0 1 0 0-3.333zM38.667 20.333a1.667 1.667 0 1 0 0-3.333 1.667 1.667 0 0 0 0 3.333z" fill="#ADB5BD" fill-rule="evenodd"/>
</svg>
